build/assets/img/icons/emoji-1.svg

<svg viewBox="4 0 60 60" xmlns="http://www.w3.org/2000/svg"><path d="m64 30c0 16.6-13.4 30-30 30s-30-13.4-30-30 13.4-30 30-30 30 13.4 30 30z" fill="#ffd972"/><path d="m63.8 11.2c-.5-2.7-2-4.9-4.5-5.6-2.7-.7-5.1.3-7.4 2.7-1.3-3.6-3.3-6.3-6.5-7.7s-6.4-.4-8.4 2.1c-2.1 2.6-2.9 6.7-.7 12 2.1 5 11.4 15 11.7 15.3.4-.2 10.8-6.7 13.3-9.9 2.5-3.1 3-6.2 2.5-8.9m-32.8-8.5c-2-2.5-5.2-3.5-8.4-2.1s-5.2 4.1-6.5 7.7c-2.3-2.3-4.7-3.4-7.4-2.6-2.4.7-4 2.9-4.5 5.6-.5 2.6.1 5.8 2.5 8.9 2.6 3.1 13 9.6 13.4 9.8.3-.3 9.6-10.3 11.7-15.3 2.1-5.3 1.3-9.3-.8-12" fill="#f25268"/><path d="m51 36.1c0-.8-.5-1.8-1.8-2.1-3.5-.7-8.6-1.3-15.2-1.3s-11.7.7-15.2 1.3c-1.4.3-1.8 1.3-1.8 2.1 0 7.3 5.6 14.6 17 14.6 11.4-.1 17-7.4 17-14.6" fill="#262c38"/><path d="m46.7 36.3c-2.2-.4-6.8-1-12.7-1s-10.5.6-12.7 1c-1.3.2-1.4.7-1.3 1.5.1.4.1 1 .3 1.6.1.6.3.9 1.3.8 1.9-.2 23-.2 24.9 0 1 .1 1.1-.2 1.3-.8.1-.6.2-1.1.3-1.6 0-.8-.1-1.3-1.4-1.5" fill="#fff"/></svg>

<?xml version="1.0" encoding="utf-8"?>
<!-- Generator: Adobe Illustrator 19.0.0, SVG Export Plug-In . SVG Version: 6.00 Build 0)  -->
<svg version="1.1" id="Layer_1" xmlns="http://www.w3.org/2000/svg" xmlns:xlink="http://www.w3.org/1999/xlink" x="0px" y="0px"
	 viewBox="4 0 60 60" style="enable-background:new 4 0 60 60;" xml:space="preserve">
<style type="text/css">
	.st0{fill:#FFD972;}
	.st1{fill:#F25268;}
	.st2{fill:#262C38;}
	.st3{fill:#FFFFFF;}
</style>
<path class="st0" d="M64,30c0,16.6-13.4,30-30,30s-30-13.4-30-30S17.4,0,34,0S64,13.4,64,30z"/>
<g>
	<path class="st1" d="M63.8,11.2c-0.5-2.7-2-4.9-4.5-5.6c-2.7-0.7-5.1,0.3-7.4,2.7c-1.3-3.6-3.3-6.3-6.5-7.7C42.2-0.8,39,0.2,37,2.7
		c-2.1,2.6-2.9,6.7-0.7,12c2.1,5,11.4,15,11.7,15.3c0.4-0.2,10.8-6.7,13.3-9.9C63.8,17,64.3,13.9,63.8,11.2"/>
	<path class="st1" d="M31,2.7c-2-2.5-5.2-3.5-8.4-2.1s-5.2,4.1-6.5,7.7C13.8,6,11.4,4.9,8.7,5.7c-2.4,0.7-4,2.9-4.5,5.6
		c-0.5,2.6,0.1,5.8,2.5,8.9c2.6,3.1,13,9.6,13.4,9.8c0.3-0.3,9.6-10.3,11.7-15.3C33.9,9.4,33.1,5.4,31,2.7"/>
</g>
<path class="st2" d="M51,36.1c0-0.8-0.5-1.8-1.8-2.1c-3.5-0.7-8.6-1.3-15.2-1.3S22.3,33.4,18.8,34c-1.4,0.3-1.8,1.3-1.8,2.1
	c0,7.3,5.6,14.6,17,14.6C45.4,50.6,51,43.3,51,36.1"/>
<path class="st3" d="M46.7,36.3c-2.2-0.4-6.8-1-12.7-1s-10.5,0.6-12.7,1C20,36.5,19.9,37,20,37.8c0.1,0.4,0.1,1,0.3,1.6
	c0.1,0.6,0.3,0.9,1.3,0.8c1.9-0.2,23-0.2,24.9,0c1,0.1,1.1-0.2,1.3-0.8c0.1-0.6,0.2-1.1,0.3-1.6C48.1,37,48,36.5,46.7,36.3"/>
</svg>
